apps/www/public/images/logos/publicity/fixed-width/nextdoorlending.svg

<svg width="180" height="60" viewBox="0 0 180 60" fill="none" xmlns="http://www.w3.org/2000/svg">
<path d="M39.7812 32.1751L32.6751 21.589V32.1751H28.4246V15.0138H32.6751L39.7812 25.6484V15.0138H44.0318V32.1751H39.7812Z" fill="#7E7E7E"/>
<path d="M60.1049 26.3589H50.4879C50.5535 27.2049 50.8325 27.8541 51.3215 28.303C51.8107 28.7519 52.4113 28.9747 53.1235 28.9747C54.1837 28.9747 54.9223 28.5355 55.3358 27.6539H59.8588C59.6257 28.5517 59.2089 29.3558 58.6049 30.0727C58.001 30.7896 57.2428 31.3516 56.3304 31.7585C55.4179 32.1654 54.4004 32.3688 53.2745 32.3688C51.9157 32.3688 50.7078 32.0847 49.6476 31.513C48.5874 30.9414 47.7603 30.1276 47.163 29.0684C46.5655 28.0091 46.2668 26.769 46.2668 25.3512C46.2668 23.9335 46.5623 22.6934 47.1498 21.6342C47.7373 20.5749 48.5612 19.7611 49.6213 19.1895C50.6782 18.6243 51.896 18.3401 53.2712 18.3401C54.6137 18.3401 55.8052 18.6179 56.8489 19.1701C57.8927 19.7256 58.7067 20.5136 59.2975 21.5405C59.885 22.5675 60.1804 23.7656 60.1804 25.1349C60.1804 25.5256 60.1542 25.9325 60.1049 26.3589ZM55.8314 24.0336C55.8314 23.3167 55.582 22.7451 55.0864 22.322C54.5907 21.899 53.9671 21.6858 53.222 21.6858C52.5098 21.6858 51.9091 21.8893 51.4201 22.2962C50.931 22.7031 50.629 23.2812 50.5141 24.0336H55.8314Z" fill="#7E7E7E"/>
<path d="M70.6148 32.1751L67.9561 28.3869L65.721 32.1751H61.1258L65.6979 25.206L61.001 18.5339H65.7734L68.432 22.2995L70.6673 18.5339H75.2625L70.6148 25.4029L75.3872 32.1751H70.6148Z" fill="#7E7E7E"/>
<path d="M84.7549 28.6324V32.1783H82.5918C81.0524 32.1783 79.8512 31.8069 78.9879 31.0674C78.128 30.3246 77.6947 29.1168 77.6947 27.4375V22.0056H76.0043V18.5339H77.6947V15.2108H81.9453V18.5371H84.7285V22.0088H81.9453V27.486C81.9453 27.8928 82.0437 28.1867 82.2439 28.3675C82.4441 28.5484 82.7723 28.6356 83.2384 28.6356H84.7549V28.6324Z" fill="#7E7E7E"/>
<path d="M103.74 16.0892C105.115 16.8061 106.178 17.8137 106.933 19.1087C107.688 20.4037 108.062 21.899 108.062 23.5944C108.062 25.2738 107.685 26.7658 106.933 28.0672C106.178 29.3719 105.112 30.3827 103.727 31.0997C102.345 31.8166 100.74 32.1751 98.918 32.1751H92.383V15.0138H98.918C100.756 15.0138 102.364 15.3723 103.74 16.0892ZM102.397 27.2631C103.293 26.4008 103.74 25.1768 103.74 23.5944C103.74 22.0152 103.293 20.7816 102.397 19.9032C101.501 19.0215 100.251 18.5823 98.6456 18.5823H96.6303V28.5581H98.6423C100.251 28.5581 101.501 28.1254 102.397 27.2631Z" fill="#7E7E7E"/>
<path d="M149.09 19.0345C149.836 18.6017 150.663 18.3853 151.575 18.3853V22.8097H150.407C149.347 22.8097 148.553 23.0325 148.021 23.4814C147.489 23.9303 147.226 24.715 147.226 25.8422V32.1751H142.976V18.5339H147.226V20.8074C147.725 20.0582 148.346 19.4672 149.09 19.0345Z" fill="#7E7E7E"/>
<path d="M49.0438 43.3749H51.7156V44.9249H47.0055V36.6867H49.0438V43.3749Z" fill="#7E7E7E"/>
<path d="M60.6926 38.2949V39.9613H63.4235V41.5114H60.6926V43.3199H63.7813V44.9282H58.6543V36.6867H63.7813V38.2949H60.6926Z" fill="#7E7E7E"/>
<path d="M78.5579 44.9249H76.5197L73.1094 39.845V44.9249H71.0711V36.6867H73.1094L76.5197 41.7892V36.6867H78.5579V44.9249Z" fill="#7E7E7E"/>
<path d="M91.4475 37.2033C92.1073 37.5489 92.6193 38.0301 92.9804 38.6534C93.3415 39.2767 93.522 39.9936 93.522 40.8074C93.522 41.6148 93.3415 42.3285 92.9804 42.955C92.6193 43.5816 92.1073 44.0659 91.441 44.4115C90.778 44.757 90.0067 44.9282 89.1336 44.9282H85.9957V36.6867H89.1336C90.0165 36.6867 90.7878 36.861 91.4475 37.2033ZM90.8042 42.5675C91.2343 42.1541 91.4475 41.5663 91.4475 40.8074C91.4475 40.0485 91.2343 39.4575 90.8042 39.0345C90.3743 38.6114 89.7736 38.4015 89.0023 38.4015H88.0372V43.1876H89.0023C89.7769 43.1876 90.3743 42.9809 90.8042 42.5675Z" fill="#7E7E7E"/>
<path d="M102.67 36.6867V44.9249H100.631V36.6867H102.67Z" fill="#7E7E7E"/>
<path d="M117.601 44.9249H115.562L112.152 39.845V44.9249H110.114V36.6867H112.152L115.562 41.7892V36.6867H117.601V44.9249Z" fill="#7E7E7E"/>
<path d="M130.599 39.2928C130.448 39.0183 130.23 38.8084 129.949 38.6663C129.667 38.521 129.335 38.4499 128.954 38.4499C128.294 38.4499 127.766 38.663 127.369 39.0893C126.972 39.5156 126.771 40.084 126.771 40.7977C126.771 41.5567 126.981 42.1476 127.398 42.5739C127.815 43.0002 128.39 43.2133 129.121 43.2133C129.624 43.2133 130.047 43.0874 130.392 42.8387C130.736 42.59 130.989 42.2283 131.15 41.7601H128.563V40.281H133.001V42.1476C132.85 42.6482 132.594 43.1132 132.233 43.5428C131.872 43.9723 131.413 44.321 130.854 44.5859C130.296 44.8507 129.669 44.9863 128.971 44.9863C128.144 44.9863 127.405 44.8087 126.758 44.4535C126.112 44.0982 125.606 43.6041 125.245 42.9679C124.884 42.3349 124.703 41.6115 124.703 40.7977C124.703 39.9839 124.884 39.2573 125.245 38.6211C125.606 37.9849 126.108 37.4876 126.755 37.1322C127.398 36.777 128.133 36.5995 128.96 36.5995C129.962 36.5995 130.808 36.8384 131.494 37.3164C132.181 37.7943 132.637 38.4531 132.86 39.2992H130.599V39.2928Z" fill="#7E7E7E"/>
<path d="M123.319 21.9474C122.685 20.872 121.815 20.0453 120.712 19.4704C119.609 18.8956 118.372 18.6082 117.003 18.6082C115.635 18.6082 114.397 18.8956 113.294 19.4704C112.191 20.0453 111.322 20.872 110.688 21.9474C110.055 23.0228 109.736 24.2694 109.736 25.6839C109.736 27.1145 110.048 28.3644 110.675 29.43C111.302 30.499 112.162 31.3192 113.255 31.8941C114.348 32.4689 115.582 32.7564 116.951 32.7564C118.319 32.7564 119.56 32.4689 120.673 31.8941C121.782 31.3192 122.662 30.4926 123.305 29.4171C123.948 28.3417 124.27 27.0952 124.27 25.6806C124.27 24.2694 123.952 23.026 123.319 21.9474ZM121.011 29.598H118.191V26.6365H115.818V29.598H112.999V24.8927L117.003 22.364L121.008 24.8927V29.598H121.011ZM121.845 24.3663C121.756 24.5019 121.605 24.5761 121.454 24.5761C121.365 24.5761 121.28 24.5536 121.201 24.5019L117.003 21.8182L112.805 24.5019C112.589 24.6408 112.3 24.5794 112.162 24.3663C112.021 24.1531 112.083 23.8689 112.3 23.7333L116.751 20.8881C116.905 20.788 117.105 20.788 117.259 20.8881L121.71 23.7333C121.923 23.8722 121.986 24.1564 121.845 24.3663Z" fill="#7E7E7E"/>
<path d="M139.671 21.9474C139.037 20.872 138.168 20.0453 137.064 19.4704C135.962 18.8956 134.725 18.6082 133.355 18.6082C131.987 18.6082 130.749 18.8956 129.647 19.4704C128.544 20.0453 127.674 20.872 127.04 21.9474C126.407 23.0228 126.089 24.2694 126.089 25.6839C126.089 27.1145 126.4 28.3644 127.027 29.43C127.655 30.499 128.514 31.3192 129.608 31.8941C130.7 32.4689 131.934 32.7564 133.303 32.7564C134.672 32.7564 135.912 32.4689 137.025 31.8941C138.135 31.3192 139.014 30.4926 139.658 29.4171C140.301 28.3417 140.623 27.0952 140.623 25.6806C140.623 24.2694 140.304 23.026 139.671 21.9474ZM137.363 29.598H134.54V26.6365H132.167V29.598H129.348V24.8927L133.352 22.364L137.357 24.8927V29.598H137.363ZM138.197 24.3663C138.109 24.5019 137.957 24.5761 137.806 24.5761C137.718 24.5761 137.632 24.5536 137.553 24.5019L133.355 21.8182L129.158 24.5019C128.941 24.6408 128.652 24.5794 128.514 24.3663C128.373 24.1531 128.436 23.8689 128.652 23.7333L133.103 20.8881C133.257 20.788 133.457 20.788 133.612 20.8881L138.062 23.7333C138.275 23.8722 138.338 24.1564 138.197 24.3663Z" fill="#7E7E7E"/>
</svg>

<svg xmlns="http://www.w3.org/2000/svg" width="180" height="60" fill="none" viewBox="0 0 180 60"><path fill="#7e7e7e" d="M39.781 32.175 32.675 21.59v10.586h-4.25V15.014h4.25l7.106 10.634V15.014h4.25v17.161zM60.105 26.359h-9.617q.1 1.27.834 1.944t1.801.672q1.592 0 2.213-1.321h4.523a6.1 6.1 0 0 1-1.254 2.419 6.25 6.25 0 0 1-2.275 1.686q-1.368.61-3.055.61-2.038.001-3.627-.856a6.15 6.15 0 0 1-2.485-2.445q-.896-1.59-.896-3.717 0-2.128.883-3.717a6.06 6.06 0 0 1 2.471-2.445q1.587-.848 3.65-.849 2.013.001 3.578.83a6.04 6.04 0 0 1 2.449 2.37q.881 1.541.882 3.595 0 .584-.075 1.224m-4.274-2.325q0-1.076-.745-1.712c-.495-.423-1.119-.636-1.864-.636q-1.068 0-1.802.61-.733.61-.906 1.738zM70.615 32.175l-2.659-3.788-2.235 3.788h-4.595l4.572-6.969L61 18.534h4.772l2.659 3.765 2.235-3.765h4.596l-4.648 6.869 4.772 6.772zM84.755 28.632v3.546h-2.163q-2.309 0-3.604-1.11-1.292-1.113-1.293-3.63v-5.432h-1.69v-3.472h1.69V15.21h4.25v3.326h2.784v3.472h-2.784v5.477q0 .61.299.881c.2.181.528.269.994.269h1.517zM103.74 16.09q2.061 1.075 3.193 3.019 1.13 1.943 1.129 4.485 0 2.52-1.129 4.473-1.13 1.957-3.206 3.033t-4.809 1.075h-6.535V15.014h6.535q2.757 0 4.822 1.075m-1.343 11.173q1.344-1.294 1.343-3.669c0-1.579-.447-2.812-1.343-3.69q-1.344-1.323-3.751-1.322H96.63v9.976h2.012q2.412-.001 3.755-1.295M149.09 19.035a4.86 4.86 0 0 1 2.485-.65v4.425h-1.168q-1.589 0-2.386.671c-.532.45-.795 1.234-.795 2.361v6.333h-4.25V18.534h4.25v2.273a5.6 5.6 0 0 1 1.864-1.772M49.044 43.375h2.672v1.55h-4.71v-8.238h2.038zM60.693 38.295v1.666h2.73v1.55h-2.73v1.809h3.088v1.608h-5.127v-8.241h5.127v1.608zM78.558 44.925H76.52l-3.41-5.08v5.08H71.07v-8.238h2.038l3.41 5.102v-5.102h2.039zM91.448 37.203q.99.517 1.532 1.45.542.934.542 2.154c0 .808-.18 1.521-.542 2.148a3.7 3.7 0 0 1-1.539 1.456q-.996.518-2.307.517h-3.138v-8.241h3.138q1.323.002 2.314.516m-.644 5.365q.645-.622.644-1.76 0-1.14-.644-1.773-.645-.635-1.802-.633h-.965v4.786h.965c.775 0 1.372-.207 1.802-.62M102.67 36.687v8.238h-2.039v-8.238zM117.601 44.925h-2.039l-3.41-5.08v5.08h-2.038v-8.238h2.038l3.41 5.102v-5.102h2.039zM130.599 39.293a1.5 1.5 0 0 0-.65-.627q-.423-.217-.995-.216-.99 0-1.585.64-.597.638-.598 1.708 0 1.138.627 1.776.626.64 1.723.64.754-.002 1.271-.375.516-.374.758-1.079h-2.587v-1.479h4.438v1.867q-.227.75-.768 1.395a4 4 0 0 1-1.379 1.043q-.837.399-1.883.4-1.242 0-2.213-.532a3.8 3.8 0 0 1-1.513-1.486q-.542-.95-.542-2.17 0-1.221.542-2.177a3.8 3.8 0 0 1 1.51-1.489q.964-.532 2.205-.532 1.504 0 2.534.716 1.031.716 1.366 1.983h-2.261zM123.319 21.947a6.4 6.4 0 0 0-2.607-2.477q-1.655-.861-3.709-.862-2.053 0-3.709.862a6.4 6.4 0 0 0-2.606 2.477q-.95 1.614-.952 3.737 0 2.146.939 3.746a6.37 6.37 0 0 0 2.58 2.464q1.641.862 3.696.862 2.052 0 3.722-.862a6.5 6.5 0 0 0 2.632-2.477q.965-1.614.965-3.736 0-2.117-.951-3.734m-2.308 7.651h-2.82v-2.961h-2.373v2.961h-2.819v-4.705l4.004-2.529 4.005 2.529v4.705zm.834-5.232a.47.47 0 0 1-.644.136l-4.198-2.684-4.198 2.684a.467.467 0 0 1-.643-.136.45.45 0 0 1 .138-.633l4.451-2.845c.154-.1.354-.1.508 0l4.451 2.845a.454.454 0 0 1 .135.633M139.671 21.947a6.4 6.4 0 0 0-2.607-2.477q-1.654-.861-3.709-.862-2.054 0-3.708.862a6.4 6.4 0 0 0-2.607 2.477q-.95 1.614-.951 3.737-.001 2.146.938 3.746a6.4 6.4 0 0 0 2.581 2.464q1.64.862 3.695.862 2.053 0 3.722-.862a6.5 6.5 0 0 0 2.633-2.477q.965-1.614.965-3.736-.001-2.117-.952-3.734m-2.308 7.651h-2.823v-2.961h-2.373v2.961h-2.819v-4.705l4.004-2.529 4.005 2.529v4.705zm.834-5.232a.47.47 0 0 1-.644.136l-4.198-2.684-4.197 2.684a.47.47 0 0 1-.644-.136.45.45 0 0 1 .138-.633l4.451-2.845c.154-.1.354-.1.509 0l4.45 2.845a.454.454 0 0 1 .135.633"/></svg>
